src/assets/selectIcons/materiale_8.svg

<svg xmlns="http://www.w3.org/2000/svg" viewBox="0 0 512 512" style="height: 512px; width: 512px;"><path d="M0 0h512v512H0z" fill="#000" fill-opacity="1"></path><g class="" transform="translate(0,0)" style=""><path d="M233.986 85.262l-63.37 21.11L334.32 160.9l63.373-21.11-163.707-54.53zm-82.85 33.593v58.088l174.184 58.02v-58.086l-174.183-58.022zm-18 50.215l-53.71 17.89 162.63 54.175 22.417-7.467-125.18-41.7a9 9 0 0 1-6.156-8.536V169.07zm-73.19 30.375v58.088l122.286 40.733v-30.71a9 9 0 0 1 .018-.357 9 9 0 0 1 .01-.192 9 9 0 0 1 .07-.697 9 9 0 0 1 .03-.205 9 9 0 0 1 .134-.66 9 9 0 0 1 .06-.236 9 9 0 0 1 .19-.616 9 9 0 0 1 .092-.248 9 9 0 0 1 .238-.567 9 9 0 0 1 .135-.282 9 9 0 0 1 .265-.488 9 9 0 0 1 .197-.32 9 9 0 0 1 .28-.41 9 9 0 0 1 .26-.342 9 9 0 0 1 .288-.344 9 9 0 0 1 .318-.342 9 9 0 0 1 .3-.29 9 9 0 0 1 .374-.33 9 9 0 0 1 .3-.237 9 9 0 0 1 .438-.315 9 9 0 0 1 .286-.182 9 9 0 0 1 .502-.29 9 9 0 0 1 .26-.133 9 9 0 0 1 .59-.262 9 9 0 0 1 .21-.082 9 9 0 0 1 .317-.122l25.18-8.387-153.628-51.175zm364.847 27.352l-87.63 29.19a9 9 0 0 1-.247.07 9 9 0 0 1-.355.1 9 9 0 0 1-.443.1 9 9 0 0 1-.47.085 9 9 0 0 1-.4.05 9 9 0 0 1-.49.038 9 9 0 0 1-.423.007 9 9 0 0 1-.48-.01 9 9 0 0 1-.397-.03 9 9 0 0 1-.504-.06 9 9 0 0 1-.38-.07 9 9 0 0 1-.52-.117 9 9 0 0 1-.31-.087 9 9 0 0 1-.268-.077l-38.526-12.834-73.23 24.395 63.368 21.11 163.707-54.532-22.002-7.328zm-224.56 53.242v58.085l73.85 24.602v-36.225l.005.002V304.63l-2.752-.915-.014.004-71.09-23.68zm-85.174 14.82L58.57 313.68l63.373 21.11 56.485-18.817-63.37-21.11zM39.095 326.17v58.088l73.85 24.6v-58.088l-73.85-24.6zm390.207 9.816l-63.375 21.112 36.283 12.086 63.374-21.112-36.28-12.086zM219.03 363.36v21.86l174.183 58.022v-58.088L337.45 366.58l-51.516 17.162a9 9 0 0 1-.19.053 9 9 0 0 1-.467.133 9 9 0 0 1-.332.074 9 9 0 0 1-.588.107 9 9 0 0 1-.253.03 9 9 0 0 1-.674.053 9 9 0 0 1-.196.004 9 9 0 0 1-.693-.013 9 9 0 0 1-.206-.016 9 9 0 0 1-.723-.09 9 9 0 0 1-.122-.02 9 9 0 0 1-.795-.18 9 9 0 0 1-.025-.007 9 9 0 0 1-.432-.122l-61.207-20.39z" fill="#fff" fill-opacity="1"></path></g></svg>

<?xml version="1.0" encoding="UTF-8" standalone="no"?>
<!DOCTYPE svg PUBLIC "-//W3C//DTD SVG 1.1//EN" "http://www.w3.org/Graphics/SVG/1.1/DTD/svg11.dtd">
<svg width="100%" height="100%" viewBox="0 0 512 512" version="1.1" xmlns="http://www.w3.org/2000/svg" xmlns:xlink="http://www.w3.org/1999/xlink" xml:space="preserve" xmlns:serif="http://www.serif.com/" style="fill-rule:evenodd;clip-rule:evenodd;stroke-linejoin:round;stroke-miterlimit:2;">
    <rect x="0" y="0" width="512" height="512" style="fill-rule:nonzero;"/>
    <g>
        <path d="M233.986,85.262L170.616,106.372L334.32,160.9L397.693,139.79L233.986,85.26L233.986,85.262ZM151.136,118.855L151.136,176.943L325.32,234.963L325.32,176.877L151.137,118.855L151.136,118.855ZM133.136,169.07L79.426,186.96L242.056,241.135L264.473,233.668L139.293,191.968C135.627,190.747 133.138,187.296 133.137,183.432L133.137,169.07L133.136,169.07ZM59.946,199.445L59.946,257.533L182.232,298.266L182.232,267.556C182.236,267.437 182.242,267.318 182.25,267.199C182.253,267.135 182.256,267.071 182.26,267.007C182.274,266.774 182.298,266.541 182.33,266.31C182.339,266.242 182.349,266.173 182.36,266.105C182.396,265.883 182.441,265.663 182.494,265.445C182.513,265.366 182.533,265.287 182.554,265.209C182.61,265.001 182.673,264.796 182.744,264.593C182.773,264.51 182.804,264.427 182.836,264.345C182.909,264.153 182.988,263.964 183.074,263.778C183.117,263.683 183.162,263.589 183.209,263.496C183.292,263.331 183.381,263.168 183.474,263.008C183.537,262.9 183.603,262.793 183.671,262.688C183.761,262.549 183.854,262.412 183.951,262.278C184.035,262.162 184.122,262.048 184.211,261.936C184.304,261.819 184.4,261.704 184.499,261.592C184.602,261.475 184.708,261.361 184.817,261.25C184.915,261.151 185.015,261.054 185.117,260.96C185.239,260.847 185.363,260.737 185.491,260.63C185.589,260.549 185.689,260.47 185.791,260.393C185.934,260.284 186.08,260.179 186.229,260.078C186.323,260.016 186.419,259.955 186.515,259.896C186.679,259.794 186.847,259.697 187.017,259.606C187.103,259.56 187.19,259.516 187.277,259.473C187.47,259.379 187.667,259.291 187.867,259.211C187.937,259.183 188.007,259.155 188.077,259.129C188.182,259.086 188.288,259.046 188.394,259.007L213.574,250.62L59.946,199.445ZM424.793,226.797L337.163,255.987C337.081,256.012 336.999,256.035 336.916,256.057C336.798,256.093 336.68,256.126 336.561,256.157C336.414,256.194 336.266,256.227 336.118,256.257C335.962,256.289 335.805,256.318 335.648,256.342C335.515,256.362 335.382,256.378 335.248,256.392C335.085,256.409 334.922,256.422 334.758,256.43C334.617,256.436 334.476,256.438 334.335,256.437C334.175,256.438 334.015,256.435 333.855,256.427C333.722,256.42 333.59,256.41 333.458,256.397C333.289,256.382 333.121,256.362 332.954,256.337C332.827,256.316 332.7,256.293 332.574,256.267C332.4,256.233 332.226,256.194 332.054,256.15C331.95,256.123 331.847,256.094 331.744,256.063C331.654,256.039 331.565,256.013 331.476,255.986L292.95,243.152L219.72,267.547L283.088,288.657L446.795,234.125L424.793,226.797ZM200.233,280.039L200.233,338.124L274.083,362.726L274.083,326.501L274.088,326.503L274.088,304.63L271.336,303.715L271.322,303.719L200.232,280.039L200.233,280.039ZM115.059,294.859L58.57,313.68L121.943,334.79L178.428,315.973L115.058,294.863L115.059,294.859ZM39.095,326.17L39.095,384.258L112.945,408.858L112.945,350.77L39.095,326.17ZM429.302,335.986L365.927,357.098L402.21,369.184L465.584,348.072L429.304,335.986L429.302,335.986ZM219.03,363.36L219.03,385.22L393.213,443.242L393.213,385.154L337.45,366.58L285.934,383.742C285.871,383.76 285.808,383.778 285.744,383.795C285.59,383.844 285.434,383.888 285.277,383.928C285.167,383.955 285.056,383.979 284.945,384.002C284.75,384.044 284.554,384.08 284.357,384.109C284.273,384.12 284.188,384.13 284.104,384.139C283.88,384.165 283.655,384.183 283.43,384.192C283.365,384.194 283.299,384.195 283.234,384.196C283.003,384.201 282.772,384.196 282.541,384.183C282.472,384.178 282.404,384.173 282.335,384.167C282.093,384.147 281.852,384.117 281.612,384.077C281.571,384.071 281.531,384.064 281.49,384.057C281.222,384.009 280.957,383.949 280.695,383.877C280.687,383.875 280.678,383.872 280.67,383.87C280.525,383.833 280.381,383.792 280.238,383.748L219.031,363.358L219.03,363.36Z" style="fill:rgb(225,95,95);fill-rule:nonzero;"/>
    </g>
</svg>
